shader_type spatial;
render_mode unshaded, cull_front;

// Inverted-hull outline shader. Apply as next pass on toon materials.

uniform float outline_width : hint_range(0.0, 0.1) = 0.03;
uniform vec4 outline_color : source_color = vec4(0.1, 0.1, 0.1, 1.0);

void vertex() {
	VERTEX += NORMAL * outline_width;
}

void fragment() {
	ALBEDO = outline_color.rgb;
}
